X: 40207
T: Tinker's Daughter, The
R: reel
M: 4/4
K: Dmajor
|:A2 FA DAFA|f2 df efdB|A2 FA DAFA|B2 dB BAFB|
A2 FA DAFA|f2 df efde|f2af bfaf|e2de fd d2:|
f2 af bfaf|defd efde|f2 df efde|f2 df efde|
f2af bfaf|defd efde|f2 df efdB|AFEG FDD2|
f2 af bfaf|defd efde|f2 df efde|f2 df efdB|
A2 FA DAFA|f2 df efde|f2 af bfaf|e2de fd d2||

